client/public/assets/icons/custom/custom40.svg

<?xml version="1.0"?><svg xmlns="http://www.w3.org/2000/svg" width="100" height="100" viewBox="0 0 100 100"><g fill="#fff"><path d="m74 28h-48c-3.3 0-6 2.7-6 6v34c0 3.3 2.7 6 6 6h48c3.3 0 6-2.7 6-6v-34c0-3.3-2.7-6-6-6z m0 6v6h-48v-6h48z m-48 34v-18h48v18h-48z m17.1-13c-1.4 0-2.6 0.7-3.3 1.8-0.1 0.2-0.4 0.2-0.5 0-0.7-1.1-1.9-1.8-3.3-1.8-2.2 0-4 1.8-4 4s1.8 4 4 4c1.4 0 2.6-0.7 3.3-1.8 0.1-0.2 0.4-0.2 0.5 0 0.7 1.1 1.9 1.8 3.3 1.8h0.1c2.1 0 3.9-1.7 3.9-3.9v-0.2c-0.1-2.2-1.8-3.9-4-3.9z m22.9 1h-12c-1.1 0-2 0.9-2 2v2c0 1.1 0.9 2 2 2h12c1.1 0 2-0.9 2-2v-2c0-1.1-0.9-2-2-2z"></path></g></svg>

<?xml version="1.0" encoding="utf-8"?>
<!-- Generator: Adobe Illustrator 16.0.0, SVG Export Plug-In . SVG Version: 6.00 Build 0)  -->
<!DOCTYPE svg PUBLIC "-//W3C//DTD SVG 1.1//EN" "http://www.w3.org/Graphics/SVG/1.1/DTD/svg11.dtd">
<svg version="1.1" id="Layer_1" xmlns="http://www.w3.org/2000/svg" xmlns:xlink="http://www.w3.org/1999/xlink" x="0px" y="0px"
	 width="100px" height="100px" viewBox="0 0 100 100" enable-background="new 0 0 100 100" xml:space="preserve">
<g>
	<path fill="#FFFFFF" d="M74,28H26c-3.3,0-6,2.7-6,6v34c0,3.3,2.7,6,6,6h48c3.3,0,6-2.7,6-6V34C80,30.7,77.3,28,74,28z M74,34v6H26
		v-6H74z M26,68V50h48v18H26z"/>
	<path fill="#FFFFFF" d="M43.1,55L43.1,55c-1.4,0-2.6,0.7-3.3,1.8c-0.1,0.2-0.4,0.2-0.5,0C38.6,55.7,37.4,55,36,55l0,0
		c-2.2,0-4,1.8-4,4l0,0c0,2.2,1.8,4,4,4l0,0c1.4,0,2.6-0.7,3.3-1.8c0.1-0.2,0.4-0.2,0.5,0c0.7,1.1,1.9,1.8,3.3,1.8h0.1
		c2.1,0,3.9-1.7,3.9-3.9V58.9C47,56.7,45.3,55,43.1,55z"/>
	<path fill="#FFFFFF" d="M66,56H54c-1.1,0-2,0.9-2,2v2c0,1.1,0.9,2,2,2h12c1.1,0,2-0.9,2-2v-2C68,56.9,67.1,56,66,56z"/>
</g>
</svg>
